X:1
T:Title
%%score { ( 1 4 ) | ( 2 3 ) }
L:1/8
M:4/4
K:Bb
V:1 treble nm="Grand Piano"
V:4 treble 
V:2 bass 
V:3 bass 
V:1
 z8[Q:1/4=100] | [B,DB]2 [EA]>G A2 G>F | F2 G>E D3- D/F/ | [DB]2 [EA]>G A2 G>F | %4
 [B,DF]2 G>E[K:bass] [F,B,D]4 | C2 z2 E2[K:treble] E>E | D2 D>E F2 F>D | [A,C]2 C>D E2 E>E | %8
 D2 D>E F3- F/F/ | [B,E]2 E>G F2 F>A | G2 G>A B2 B>B | [^Fd]2 c>B [CFAc]2 B2 | %12
 [G,B,G]2 z2 z [B,DB]3 |] %13
V:2
 z4 z2 z z/ F/ | B,,2 z z/ E/ E2 E>E | [B,,D,B,]2 E>C [B,,F,B,]4 | [B,,B,]2 z z/ E/ [F,A,E]2 E>E | %4
 B,,2 E>C B,,3- B,,/D/ | z2 C>D C2 C2 | B,4 D2 D>B, | z2 A,2 A,2 A,2 | B,4 B,4 | %9
 [E,,E,]2 z2 [F,A,E]2 [F,A,E]2 | B,2 E>E E2 E>E | z2[K:treble] A>G D,2 G>A | %12
 E,2 FG A[K:bass] B,,3 |] %13
V:3
 x8 | z2 [F,A,]2 [F,A,]4 | x8 | z2 [F,A,]2 z2 [F,A,]2 | x8 | F,,8 | [B,,F,]8 | [F,,C,]8 | %8
 [B,,F,]8 | x8 | [E,G,]4 [E,G,]4 | [D,,D,]4[K:treble] z4 | x5[K:bass] x3 |] %13
V:4
 x8 | x8 | x8 | x8 | x4[K:bass] x4 | [C,-A,]4 C,4[K:treble] | x8 | x8 | x8 | x8 | x8 | x8 | x8 |] %13

